X: 39758
T: Thames, The
R: hornpipe
M: 4/4
K: Gmajor
~|G2 d>B A>ec>A|G>DB>A G2:|
~|G2 dB AecA|GDBA G2:|
~|g2 e>c ^G>AG>E|D>AF>A d2:|
~|g2 ec ^GAGE|DAFA d2:|

